src/24/panel/simplescreenrecorder-error.svg

<svg xmlns="http://www.w3.org/2000/svg" width="24" height="24" version="1">
 <defs>
  <style id="current-color-scheme" type="text/css">
   .ColorScheme-Text { color:#bebebe; } .ColorScheme-Highlight { color:#5294e2; }
  </style>
 </defs>
 <path style="fill:currentColor" class="ColorScheme-Highlight" d="M 4.1816406,6 C 3.5269406,6 3,6.5344188 3,7.1992188 L 3,16.800781 C 3,17.465781 3.5269406,18 4.1816406,18 L 15.818359,18 C 16.473359,18 17,17.465781 17,16.800781 L 17,14 l 5,2 0,-8 -5,2 0,-2.8007812 C 17,6.5344187 16.473359,6 15.818359,6 L 4.1816406,6 Z M 7.7773438,8 10,10.222656 12.222656,8 14,9.777344 11.777344,12 14,14.222656 12.222656,16 10,13.777344 7.7773438,16 6,14.222656 8.2226562,12 6,9.777344 7.7773438,8 Z"/>
</svg>

<svg xmlns="http://www.w3.org/2000/svg" width="24" height="24" version="1"><defs><style id="current-color-scheme" type="text/css"></style></defs><path d="M4.182 6C3.527 6 3 6.534 3 7.2v9.6c0 .666.527 1.2 1.182 1.2h11.636c.655 0 1.182-.534 1.182-1.2V14l5 2V8l-5 2V7.2c0-.666-.527-1.2-1.182-1.2H4.182zm3.595 2L10 10.223 12.223 8 14 9.777 11.777 12 14 14.223 12.223 16 10 13.777 7.777 16 6 14.223 8.223 12 6 9.777 7.777 8z" fill="currentColor" color="#5294e2"/></svg>
